packages/icons/web/discover_large.svg

<svg width="24" height="24" viewBox="0 0 24 24" fill="none" xmlns="http://www.w3.org/2000/svg">
<path d="M21.8574 13.0215C21.8574 13.0215 16.4313 16.8047 6.49316 18.4977H21.8574V13.0215Z" fill="#E7792B"/>
<path d="M21.9278 6L2 6.00334V18.6408H22L21.9987 6H21.9278ZM21.8556 6.14376V18.4971H2.1451L2.14376 6.14443H21.8556V6.14376Z" fill="#1A1918"/>
<path d="M3.74869 9.86808H2.9209V12.7272H3.74534C4.18331 12.7272 4.50025 12.6249 4.77774 12.3976C5.10792 12.1283 5.30064 11.7257 5.3033 11.2997C5.3033 10.4558 4.66541 9.86808 3.74936 9.86808H3.74869ZM4.40865 12.0158C4.23078 12.1743 4.00077 12.2431 3.63569 12.2431H3.48457V10.3529H3.63569C4.00077 10.3529 4.22209 10.4177 4.40865 10.5842C4.60389 10.756 4.72091 11.0222 4.72091 11.2963C4.72091 11.5705 4.60389 11.8446 4.40865 12.0165V12.0158ZM5.56207 9.86808H6.12708V12.7272H5.56207V9.86808ZM7.50784 10.9653C7.16817 10.8416 7.06921 10.7594 7.06921 10.6049C7.06921 10.4251 7.2464 10.288 7.48979 10.288C7.65895 10.288 7.79737 10.3569 7.94447 10.52L8.24001 10.1375C8.00497 9.93116 7.70227 9.81836 7.38949 9.82061C6.8773 9.82061 6.48681 10.1723 6.48681 10.6404C6.48681 11.0342 6.66868 11.2355 7.19892 11.424C7.41958 11.5009 7.53325 11.5524 7.58942 11.5872C7.69448 11.6485 7.75894 11.7611 7.75858 11.8827C7.75858 12.1147 7.57203 12.2859 7.32062 12.2859C7.05115 12.2859 6.83451 12.1529 6.70412 11.9048L6.33971 12.2518C6.59981 12.6289 6.91207 12.7961 7.34135 12.7961C7.92842 12.7961 8.33964 12.411 8.33964 11.8573C8.33964 11.4026 8.14908 11.1974 7.50717 10.9653H7.50784ZM8.5175 11.2997C8.5175 12.1402 9.18615 12.7921 10.0454 12.7921C10.2881 12.7921 10.4967 12.7446 10.7535 12.6249V11.969C10.5275 12.1916 10.3275 12.2819 10.0714 12.2819C9.50309 12.2819 9.0999 11.874 9.0999 11.2957C9.0999 10.7467 9.5158 10.3134 10.0454 10.3134C10.3148 10.3134 10.5188 10.4084 10.7535 10.635V9.97908C10.5054 9.85471 10.3015 9.80322 10.0581 9.80322C9.20354 9.80322 8.5175 10.4685 8.5175 11.2997ZM15.2294 11.7884L14.4571 9.86808H13.8406L15.0689 12.8008H15.3725L16.6229 9.86808H16.0111L15.2287 11.7884H15.2294ZM16.8783 12.7272H18.4791V12.2431H17.4426V11.4715H18.4409V10.9874H17.442V10.3522H18.4791V9.86808H16.8783V12.7272ZM20.7144 10.7119C20.7144 10.177 20.3412 9.86808 19.69 9.86808H18.8528V12.7272H19.4172V11.5785H19.4907L20.2717 12.7272H20.9664L20.0551 11.523C20.4803 11.4374 20.7144 11.1499 20.7144 10.7119ZM19.5817 11.1847H19.4172V10.3181H19.591C19.9421 10.3181 20.1333 10.4638 20.1333 10.742C20.1333 11.0295 19.9421 11.1847 19.5817 11.1847Z" fill="#1A1918"/>
<path d="M12.462 12.8203C13.304 12.8203 13.9865 12.1437 13.9865 11.3091C13.9865 10.4745 13.304 9.79797 12.462 9.79797C11.6201 9.79797 10.9375 10.4745 10.9375 11.3091C10.9375 12.1437 11.6201 12.8203 12.462 12.8203Z" fill="#E7792B"/>
</svg>

<svg width="24" height="24" fill="none" xmlns="http://www.w3.org/2000/svg">
    <path d="M21.857 13.021s-5.426 3.784-15.364 5.477h15.364V13.02z" fill="#E7792B"/>
    <path d="M21.928 6L2 6.003v12.638h20L21.999 6h-.071zm-.072.144v12.353H2.146L2.143 6.144h19.712z" fill="#1A1918"/>
    <path d="M3.749 9.868H2.92v2.86h.824c.438 0 .755-.103 1.033-.33.33-.27.523-.672.525-1.098 0-.844-.638-1.432-1.554-1.432zm.66 2.148c-.178.158-.408.227-.773.227h-.151v-1.89h.15c.366 0 .587.065.774.231a.958.958 0 01.312.712.975.975 0 01-.312.72zm1.153-2.148h.565v2.86h-.565v-2.86zm1.946 1.097c-.34-.123-.439-.206-.439-.36 0-.18.177-.317.42-.317.17 0 .308.069.455.232l.296-.383a1.275 1.275 0 00-.85-.316c-.513 0-.903.351-.903.82 0 .393.182.595.712.783.22.077.334.128.39.163.105.062.17.174.17.296 0 .232-.187.403-.438.403a.67.67 0 01-.617-.381l-.364.347c.26.377.572.544 1.001.544.587 0 .999-.385.999-.939 0-.454-.19-.66-.833-.892zm1.01.335c0 .84.668 1.492 1.527 1.492.243 0 .452-.047.709-.167v-.656c-.226.223-.426.313-.683.313-.568 0-.971-.408-.971-.986 0-.55.416-.983.945-.983.27 0 .474.095.709.322v-.656a1.457 1.457 0 00-.696-.176c-.854 0-1.54.665-1.54 1.497zm6.711.488l-.772-1.92h-.616l1.228 2.933h.303l1.25-2.933h-.61l-.783 1.92zm1.65.94h1.6v-.485h-1.036v-.771h.998v-.485h-.999v-.635h1.037v-.484h-1.6v2.86zm3.835-2.016c0-.535-.373-.844-1.024-.844h-.837v2.86h.564v-1.15h.074l.78 1.15h.695l-.91-1.205c.424-.086.658-.373.658-.811zm-1.132.473h-.165v-.867h.174c.351 0 .542.146.542.424 0 .287-.19.443-.551.443z" fill="#1A1918"/>
    <path d="M12.462 12.82c.842 0 1.524-.676 1.524-1.51 0-.835-.682-1.512-1.524-1.512s-1.524.677-1.524 1.511c0 .835.682 1.511 1.524 1.511z" fill="#E7792B"/>
</svg>
